X:1
T:Title
%%score 1 { ( 2 5 ) | ( 3 4 ) }
L:1/8
M:4/4
K:F
V:1 treble nm="Flute"
V:2 treble nm="Grand Piano"
V:5 treble 
V:3 bass 
V:4 bass 
V:1
 z4 z2[Q:1/4=100] C2 | A2 C2 A2 F2 | d4 c2 A2 | c2 F2 B2 E2 |[M:3/4] F6 |[M:1/4] C2 | %6
[M:4/4] A2 C2 A2 F2 | d4 c2 A2 | c2 F2 B2 E2 |[M:5/4] F2- F2- F6 |[M:4/4] z8 | z8 | z8 | z8 | z8 | %15
[M:9/8] z9 |[M:4/4] z8 |[M:7/8] z7 |] %18
V:2
 z8 | [CFAc]4 [CFAc]4 | [DFd]4 [CFc]4 | [Fc]2 F2 [EB]2 z2 |[M:3/4] [A,CF]6 |[M:1/4] z2 | %6
[M:4/4] [CFAc]4 [CFAc]4 | [DFd]4 [CFc]4 | [Fc]2 F2 [EB]2 E2 |[M:5/4][K:bass] F2- F2- F6 | %10
[M:4/4][K:treble] c4 c4 | d4 c4 | A4 A4 | [A,FA]4 [Fd]2 [FA]2 | [Fc]2 [EG]2 [Ec]2 [GB]2 | %15
[M:9/8] A2 A- A F2- F F2 |[M:4/4] [CFA]2 [A,C]2 [CFA]2 [A,C]2 |[M:7/8] [B,CG]- [B,CG]3 [A,CF]3 |] %18
V:3
 z4 z2 C,2 | A,2 C,2 A,2 F,2 | B,4 A,2 A,2 | [C,A,C]4 z2 E2 |[M:3/4] F,2 C,2 F,,2 |[M:1/4] C,2 | %6
[M:4/4] A,2 C,2 A,2 F,2 | B,4 A,2 A,2 | [C,A,C]4 [C,G,C]4 |[M:5/4] [A,C]2- [A,C]2- [A,C]6 | %10
[M:4/4] C2 z2 [C,B,]4 | [F,B,D]4 [F,A,C]4 | A,,2- [A,,B,]2 z2 G,2 | D,4 [D,A,]2 [D,A,]2 | %14
 [C,A,]2 [C,B,]2 [C,G,]2 [C,C]2 |[M:9/8] [F,CF]2 [F,CF]- [F,CF] [G,=B,D]2- [G,B,D] [G,B,]2 | %16
[M:4/4] C,2 C,2 C,2 C,2 |[M:7/8] C,- C,3 F,3 |] %18
V:4
 x8 | x8 | x8 | z4 [C,G,C]4 |[M:3/4] x6 |[M:1/4] x2 |[M:4/4] x8 | x8 | x8 |[M:5/4] F,2 z2 z2 z4 | %10
[M:4/4] [C,B,]4 z4 | x8 | E,2 z2 A,,4 | x8 | x8 |[M:9/8] x9 |[M:4/4] x8 |[M:7/8] x7 |] %18
V:5
 x8 | x8 | x8 | x8 |[M:3/4] x6 |[M:1/4] x2 |[M:4/4] x8 | x8 | x8 |[M:5/4][K:bass] z2 C,2 F,,6 | %10
[M:4/4][K:treble] z2 A2 G2 E2 | x8 | ^C2 G2 [A,F]2 E2 | x8 | x8 |[M:9/8] x9 |[M:4/4] x8 | %17
[M:7/8] x7 |] %18

